!!!!SEGMENT: pl-wtm--r-2026--001-002_smietanski-emil-wladyslaw--trio-larghetto.krn
!!!cenid: 18xx:1978
!!!COM: Śmietański, Emil Władysław
!!!COM-rismID: pe50041781
!!!CDT: 1845-1886
!!!CNT: Polish
!!!OPR: Trio
!!!OTL: Larghetto
!!!OMV: 002
!!!PDT: 1867
!!!AGN: Secular
!!!YEC: Copyright 2022 Narodowy Instytut Fryderyka Chopina (https://polishscores.org)
!!!YEM: License CC-BY-4.0 (https://creativecommons.org/licenses/by/4.0)
!!!SMS-siglum: PL-Wtm
!!!SMS-shelfmark: R 2026
!!!SMS-shelfwork: 001-002 M
!!!SMS-variant:
!!!SMS-altvar:
!!!NIFC-rismSourceID: 1001112990
!!!NIFC-rismChildID: 1001112990
!!!NIFC-islandoraID: pl-wtm:29499
!!!URL-pdf-islandora: https://repozytorium.nifc.pl/islandora/object/pl-wtm%3A29499/datastream/PDF/view
!!!URL-scan: https://polish.musicsources.pl/pl/lokalizacje/galeria/rekopisy/6518 @EN{Scan on Polish Music Sources Website} @PL{Skany w portalu Dziedzictwo Muzyki Polskiej w otwartym dostępie}
!!!IIIF:
!!!ONB-nifc: UWAGA: części Tria: 1. Molto allegro, 2. Larghetto, 3. Presto
!!!AIN: 1 cello 1 piano 1 violn
!!!key:
**kern	**kern	**kern	**dynam	**kern	**dynam
*part3	*part3	*part2	*	*part1	*
*staff4	*staff3	*staff2	*	*staff1	*
*Ipiano	*Ipiano	*Icello	*	*Ivioln	*
*I"Piano.	*I"Piano.	*I"Violoncello.	*	*I"Violine.	*
*I'pf	*I'pf	*I'vlc	*	*I'vl	*
*clefF4	*clefG2	*clefC4	*	*clefG2	*
*k[b-e-a-]	*k[b-e-a-]	*k[b-e-a-]	*	*k[b-e-a-]	*
*c:	*c:	*c:	*	*c:	*
*M6/8	*M6/8	*M6/8	*	*M6/8	*
!!LO:TX:t=P:problem:all\mixed right, left or middle:global
=1	=1	=1	=1	=1	=1
*	*2\right	*2\right	*	*	*
!	!LO:TX:a:i:t=II. Larghetto.	!LO:TX:a:B:t=Larghetto.	!LO:DY:a	!LO:TX:a:u:t=Larghetto.	!
2.CC/ 2.C	2.c\ 2.cc	2.e-\	mf	(4.gg\	<
.	.	.	.	4aa-\	.
.	.	.	.	8bbn\)	[[
=2	=2	=2	=2	=2	=2
2.EE-/ 2.E-	2.c\ 2.cc	4.e-\	.	(4ccc\	p
.	.	.	.	8aa-\	.
.	.	(4e-\	.	4.gg\)	.
.	.	8c\)	.	.	.
=3	=3	=3	=3	=3	=3
4.EE-/ 4.E-	8c/L 8cc	(8A-\L	.	(8ff#X\L	<
.	8Bn/ 8bn	8G\	.	8ee-\	.
.	8c/J 8cc	8A-\J)	.	[8ff#\J	.
4DD/ 4D	4d\ 4dd	(4Bn\	.	8ff#\L]	.
.	.	.	.	8gg\)	.
8CC/ 8C	[8e-\ 8ee-	8c\)	.	8aa-\J	[[
=4	=4	=4	=4	=4	=4
4GG\ 4G	8e-\L] 8ee-	(4Bn\	.	(4.gg\	.
.	8d\ 8dd	.	.	.	.
8EE-/ 8E-	8c\J 8cc	8c\	.	.	.
8GGG/L 8GG	4.Bn/ 4.bn	4.d\)	.	8bbn\L	.
8DD/ 8D	.	.	.	8ff#X\	.
8GGG/J 8GG	.	.	.	8gg\J)	.
=5	=5	=5	=5	=5	=5
!	!	!	!	!LO:TX:b:i:t=espress(ivo)	!
4.CC/ 4.C	4.c/ 4.cc	4.e-\	f	(4.gg\	.
.	.	.	.	32qqaa-\LLL	.
.	.	.	.	32qqgg\	.
.	.	.	.	32qqff#X\	.
.	.	.	.	32qqgg\JJJ	.
4.EE-/ 4.E-	4.c/ 4.cc	4.e-\	.	4ccc\	.
.	.	.	.	8gg\	.
!	!	!LO:LB:g=original	!	!LO:LB:g=original	!
=6	=6	=6	=6	=6	=6
4.EEE-/ 4.EE-	4Bn/ 4bn	(4G\	.	4.ee-\)	.
.	8c/ 8cc	8A-\)	.	.	.
8CC/L 8C	4.e-\ 4.ee-	4.c\	.	(4.aa-^^\	.
8EE-/ 8E-	.	.	.	.	.
8FF#X/J 8F#X	.	.	.	.	.
!LO:LB:g=original	!LO:LB:g=original	!	!	!	!
=7	=7	=7	=7	=7	=7
!	!	!LO:TX:t=dim.:problem=dynamics with extention lines	!LO:HP:a:t=dim.	!	!
8AAA-/L 8AA-	8F#X/L 8f#X	4.e-\	>	8cc\L	p
8GGG/ 8GG	8E-/ 8e-	.	.	8bn\	.
8AAA-/J 8AA-	8F#/J 8f#	.	.	8cc\J)	.
!LO:N:vis=4	!	!	!	!	!
4.GGG/ 4.GG	4.G/ 4.g	4.Bn\	.	(4ee-\	.
.	.	.	.	8dd\)	.
=8	=8	=8	=8	=8	=8
8EE-/L 8E-	4.G/ 4.g	4.G\	.	(4bn\	.
8DD/ 8D	.	.	.	.	.
8CC/J 8C	.	.	.	8cc\	.
4.GGG/ 4.GG	4.Bn/ 4.bn	4.Bn\	]]	4.dd\)	.
=9	=9	=9	=9	=9	=9
!	!	!LO:TX:a:t=2	!	!LO:TX:a:t=2	!
8G\L	16dd\LL	2r	.	2r	.
.	16bn\	.	.	.	.
8Bn\ 8g	16dd\	.	.	.	.
.	16gg\	.	.	.	.
8B\J 8g	16dd\	.	.	.	.
.	16gg\JJ	.	.	.	.
8G\L	16ee-\LL	.	.	.	.
.	16dd\	.	.	.	.
8c\ 8g	16ee-\	4r	.	4r	.
.	16gg\	.	.	.	.
8c\J 8g	16ff#X\	.	.	.	.
.	16cc\JJ	.	.	.	.
=10	=10	=10	=10	=10	=10
8GG\L	16bn\LL	2r	.	2r	.
.	16gg\	.	.	.	.
8D\ 8Bn	16b\	.	.	.	.
.	16g\	.	.	.	.
8D\J 8B	16b\	.	.	.	.
.	16g\JJ	.	.	.	.
8GG\L	16cc\LL	.	.	.	.
.	16b\	.	.	.	.
8E-\ 8A-	16cc\	4r	.	4r	.
.	16ee-\	.	.	.	.
8D\J 8c	16dd\	.	.	.	.
.	16f#X\JJ	.	.	.	.
=11	=11	=11	=11	=11	=11
*	*	*clefF4	*	*	*
!	!	!LO:N:vis=1	!	!	!LO:HP:a
8GG\L	16dd\LL	2.GG/	.	(4.d/	<
.	16g\	.	.	.	.
8Bn\ 8g	16dd\	.	.	.	.
.	16gg\	.	.	.	.
8B\J 8g	16ddd\	.	.	.	.
.	16ggg\JJ	.	.	.	.
!LO:LB:g=original	!LO:LB:g=original	!	!	!	!
=-	=-	=-	=-	=-	=-
8G\L	16eee-\LL	.	.	4e-/	.
.	16ddd\	.	.	.	.
8c\ 8g	16eee-\	.	.	.	.
.	16gg\	.	.	.	.
8c\J 8a-	16ff#X\	.	.	8f#X/)	[[
.	16cc\JJ	.	.	.	.
=12	=12	=12	=12	=12	=12
8GG\L	16bn\LL	(4.Bn\	p	4g/	.
.	16gg\	.	.	.	.
8D\J 8Bn	16b\	.	.	.	.
.	16g\	.	.	.	.
8r	16Bn\	.	.	8r	.
.	16G\JJ	.	.	.	.
4E-\ 4A-	16c</LL	4c\	.	4r	.
.	16Bn</	.	.	.	.
.	16c</	.	.	.	.
.	16E-</	.	.	.	.
8DD\	16D</	8d\)	.	8r	.
.	16F#X</JJ	.	.	.	.
!	!	!LO:LB:g=original	!	!LO:LB:g=original	!
=13	=13	=13	=13	=13	=13
16GGG\LL 16GG	16G</LL	[4.Bn\	.	[4.bn\	.
16AA-\	16A-</	.	.	.	.
16GG\	16G</	.	.	.	.
16BBn\	16Bn</	.	.	.	.
16EE-\	16E-</	.	.	.	.
16GG\JJ	16G</JJ	.	.	.	.
16GGG\LL 16DD	16D</LL	(4B\]	.	4b\]	.
16BBBn\	16BBn</	.	.	.	.
16DD\	16D</	.	.	.	.
16GG\	16G</	.	.	.	.
!	!	!	!	!LO:TX:t=cresc:problem=dynamics with extention lines	!LO:HP:a
16DD\	16D</	8G\)	.	(8g\	<
16BB\JJ	16B</JJ	.	.	.	.
=14	=14	=14	=14	=14	=14
16DD\LL 16BBn	16Bn</LL	4.d\	.	[4.dd\)	.
16C\	16c</	.	.	.	.
16BB\	16B</	.	.	.	.
16D\	16d</	.	.	.	.
16AA-\	16A-</	.	.	.	.
16BB\JJ	16B</JJ	.	.	.	.
16DD\LL 16GG	16G</LL	(4d\	.	4dd\]	.
16DD\	16D</	.	.	.	.
16GG\	16G</	.	.	.	.
16BB\	16B</	.	.	.	.
16GG\	16G</	8Bn\)	.	(8bn\	.
16D\JJ	16d</JJ	.	.	.	.
!LO:LB:g=original	!LO:LB:g=original	!	!	!	!
=15	=15	=15	=15	=15	=15
*	*	*clefC4	*	*	*
*	*	*	*	*2\right	*
16GG\LL 16D	16d\LL	[2.g\	>	2.gg\)	[
16E-\	16e-\	.	.	.	.
16D\	16d\	.	.	.	.
16G\	16g\	.	.	.	.
16BBn\	16Bn\	.	.	.	.
16D\JJ	16d\JJ	.	.	.	.
16D\LL 16G	16g\LL	.	.	.	.
16A-\	16a-\	.	.	.	.
16G\	16g\	.	.	.	.
16Bn\	16bn\	.	.	.	.
16D\	16d\	.	.	.	.
16G\JJ	16g\JJ	.	.	.	.
=16	=16	=16	=16	=16	=16
16G\LL 16Bn	16bn\LL	8g\]	.	8ggg\	.
16d\	16dd\	.	.	.	.
16G\	16g\	4r	]	4r	.
16B\	16b\	.	.	.	.
16d\	16dd\	.	.	.	.
16g\JJ	16gg\JJ	.	.	.	.
16G\LL 16d	16dd\LL	4r	.	4r	.
16g\	16gg\	.	.	.	.
16G\ 16d	16dd\	.	.	.	.
16g\JJ	16gg\JJ	.	.	.	.
8G\	8g\	8r	.	32cc\LLL	.
.	.	.	.	32dd\	.
.	.	.	.	32ee-\	.
.	.	.	.	32ff#X\JJJ	.
=17	=17	=17	=17	=17	=17
!	!	!	!	!LO:N:vis=4.	!LO:DY:a
2.CC/ 2.C	2.c/ 2.cc	2.e-\	.	(4gg\	p
!	!	!	!	!LO:N:vis=8.	!
.	.	.	.	8aa-\L	.
.	.	.	.	32qqaa-/LLL	.
.	.	.	.	32qqbbn/JJJ	.
.	.	.	.	16aa-\L	.
.	.	.	.	16bb\JJ	.
.	.	.	.	4bbtt\)	.
!	!	!	!	!LO:LB:g=original	!
=18	=18	=18	=18	=18	=18
2.EE-/ 2.E-	2.c/ 2.cc	4.e-\	.	(4ccc\	.
.	.	.	.	8aa-\	.
.	.	(4e-\	.	4.gg\)	.
.	.	8c\)	.	.	.
!	!	!LO:LB:g=original	!	!	!
=19	=19	=19	=19	=19	=19
4.EE-/ 4.E-	8c/L 8cc	(8A-\L	.	(8ff#X\L	<
.	8Bn/ 8bn	8G\	.	8ee-\	.
.	8c/J 8cc	8A-\J)	.	[8ff#\J	.
4DD/ 4D	4d/ 4dd	(4Bn\	.	8ff#\L]	.
.	.	.	.	8gg\)	.
8CC/ 8C	[8e-/ [8ee-	8c\)	.	8aa-\J	[[
!LO:LB:g=original	!LO:LB:g=original	!	!	!	!
=20	=20	=20	=20	=20	=20
!	!	!	!	!LO:TX:t=P:problem=♭ przed tr	!
4GG\ 4G	8e-\L] 8ee-]	(4Bn\	.	(4.ggtt\	p
.	8d\ 8dd	.	.	.	.
8EE-\ 8E-	8c\J 8cc	8c\	.	.	.
8GGG/L 8GG	4.Bn/ 4.bn	4.d\)	.	8bbn\L	.
8DD/ 8D	.	.	.	8ff#X\	.
8GGG/J 8GG	.	.	.	8gg\J)	.
=21	=21	=21	=21	=21	=21
4.CC/ 4.C	4.c/ 4.cc	4.e-\	.	(4.gg\	f
.	.	.	.	32qqaa-\LLL	.
.	.	.	.	32qqgg\	.
.	.	.	.	32qqff#X\	.
.	.	.	.	32qqgg\JJJ	.
4.EE-/ 4.E-	4.c/ 4.cc	4.e-\	.	4ccc\	.
.	.	.	.	8gg\)	.
=22	=22	=22	=22	=22	=22
4.EEE-/ 4.EE-	4Bn/ 4bn	(4G\	.	(4.ee-\	>
.	8c/ 8cc	8A-\)	.	.	.
8CC/L 8C	4.e-/ 4.ee-	4.c\	.	4.aa-\)	]]
8EE-/ 8E-	.	.	.	.	.
8FF#X/J 8F#X	.	.	.	.	.
!	!	!	!	!LO:LB:g=original	!
=23	=23	=23	=23	=23	=23
8AAA-/L 8AA-	8F#X/L 8f#X	(4e-\	.	(8cc\L	.
8GGG/ 8GG	8E-/ 8e-	.	.	8bn\	.
8AAA-/J 8AA-	8F#/J 8f#	16d\LL	.	8cc\J)	.
.	.	16c\JJ)	.	.	.
!	!	!	!	!LO:N:vis=4.	!
4.GGG/ 4.GG	4.G/ 4.g	4.Bntt\	.	(4ee-\	p
.	.	.	.	8dd\)	.
!	!	!LO:LB:g=original	!	!	!
=24	=24	=24	=24	=24	=24
4.CC/ 4.C	4E-/ 4e-	4c\	.	4cc\	.
.	8gg\	8r	.	8r	.
4.A-\ 4.c	16ff#X\LL	4r	.	4.e-/	.
.	16cc\	.	.	.	.
.	16ee-\	.	.	.	.
.	16gg\	.	.	.	.
.	16ff#\	8r	.	.	p
.	16ee-\JJ	.	.	.	.
!LO:LB:g=original	!LO:LB:g=original	!	!	!	!
=25	=25	=25	=25	=25	=25
!	!	!LO:TX:a:t=1	!	!	!
4BBn\ 4d	16ff#X\LL	2r	.	(4d/	.
.	16dd\	.	.	.	.
.	16gg\	.	.	.	.
.	16ddd\	.	.	.	.
8C\ 8e-	16aa-\	.	.	8c/	.
.	16ee-\JJ	.	.	.	.
16f#X\LL	4.a-\ 4.cc	.	.	4.e-/)	.
16c\	.	.	.	.	.
16e-\	.	4r	.	.	.
16g\	.	.	.	.	.
16f#\	.	.	.	.	.
16e-\JJ	.	.	.	.	.
=26	=26	=26	=26	=26	=26
16f#X\LL	4.d/ 4.bn	4r	.	8d/	.
16g\	.	.	.	.	.
16g\	.	.	.	4r	.
16G\	.	.	.	.	.
16G\	.	8r	.	.	.
16GG\JJ	.	.	.	.	.
*	*	*clefF4	*	*	*
4.GG-X\ 4.G-X	16cc\LL	4.B--\	<	4r	.
.	16g-X\	.	.	.	.
.	16b--\	.	.	.	.
.	16dd-X\	.	.	.	.
.	16cc\	.	.	8r	.
.	16b--\JJ	.	.	.	.
=27	=27	=27	=27	=27	=27
!	!	!	!	!LO:TX:a:t=1	!
4FF\ 4A-	16cc\LL	(4A-\	.	2r	.
.	16a-\	.	.	.	.
.	16dd-X\	.	.	.	.
.	16aa-\	.	.	.	.
8GG\ 8B--	16ee--\	8G-X\)	.	.	.
.	16b--\JJ	.	.	.	.
16c\LL	4.e--/ 4.g-X	(4.B--\	[ p	.	.
16G-X\	.	.	.	.	.
16B--\	.	.	.	4r	.
16d-X\	.	.	.	.	.
16c\	.	.	.	.	.
16B--\JJ	.	.	.	.	.
!	!	!	!	!LO:LB:g=original	!
=28	=28	=28	=28	=28	=28
16c\LL	4.A-/ 4.f	4.A-\)	.	4r	.
16d-X\	.	.	.	.	.
16d-\	.	.	.	.	.
16D-X\	.	.	.	.	.
16D-\	.	.	.	8r	.
16DD-X\JJ	.	.	.	.	.
16DD-\LL	16F</LL	(4Gn\	.	4.bn\	.
16GG\	16Bn</	.	.	.	.
16D-\	16f</	.	.	.	.
16GG\	16B</	.	.	.	.
16D-\	16f</	8F\)	.	.	.
16G\JJ	16g</JJ	.	.	.	.
!LO:PB:g=original	!LO:PB:g=original	!LO:LB:g=original	!	!	!
=29	=29	=29	=29	=29	=29
!	!	!	!	!	!LO:DY:a
16C\LL	8c\L 8a-	(4En\	.	(4.cc\	p
16En\	.	.	.	.	.
16C\	8g\	.	.	.	.
16GG\	.	.	.	.	.
16AA-\	8f\J	8F\)	.	.	.
16C\JJ	.	.	.	.	.
16CC\LL	4.en\	4.G\	<	8een\L	.
16En\	.	.	.	.	.
16GG\	.	.	.	8bn\	.
16E\	.	.	.	.	.
16CC\	.	.	.	8cc\J)	.
16E\JJ	.	.	.	.	.
=30	=30	=30	=30	=30	=30
16C\LL	8c\L 8cc	(4F\	.	(4.cc\	.
16F\	.	.	.	.	.
16C\	8a-\	.	.	.	.
16AA-\	.	.	.	.	.
16C\	8g\J	8G\)	.	.	.
16EEn\JJ	.	.	.	.	.
16CC\LL	4.f\	4.A-\	.	8ff\L	.
16F\	.	.	.	.	.
16AA-\	.	.	.	8bn\	.
16F\	.	.	.	.	.
16CC\	.	.	.	8cc\J)	.
16F\JJ	.	.	.	.	.
=31	=31	=31	=31	=31	=31
!	!	!	!	!LO:TX:t=cresc:problem=dynamics with extention lines	!LO:HP:a
16CC\LL	4.f\	4.A-\	.	(8ff\L	<
16F\	.	.	.	.	.
16AA-\	.	.	.	8cc\	.
16F\	.	.	.	.	.
16CC\	.	.	.	8dd-X\J)	.
16F\JJ	.	.	.	.	.
16FF\LL	4.a-\	4.d-X\	.	(8aa-\L	.
16A-\	.	.	.	.	.
16D-X\	.	.	.	8een\	.
16A-\	.	.	.	.	.
16FF\	.	.	.	8ff\J	.
16A-\JJ	.	.	.	.	.
=32	=32	=32	=32	=32	=32
16AA-\LL	8bn\L	(4.f^^\	.	8ddd-X\L)	.
16d-X\	.	.	.	.	.
16F\	8cc\	.	.	8ccc\	[
16d-\	.	.	.	.	.
16AA-\	8dd-X\J	.	.	8bbn\J	.
16d-\JJ	.	.	.	.	.
16GG\LL	4cc\	8en\)	.	(4ccc\	.
16en\	.	.	.	.	.
16c\	.	4r	[	.	.
16G\	.	.	.	.	.
16G\	8c/	.	.	8cc\)	.
16En\JJ	.	.	.	.	.
!	!	!	!	!LO:LB:g=original	!
=33	=33	=33	=33	=33	=33
!	!	!	!	!	!LO:DY:a
16C\LL	8c\L 8a-	(4En\	.	(4.cc\	p
16En\	.	.	.	.	.
16C\	8g\	.	.	.	.
16GG\	.	.	.	.	.
16AA-\	8f\J	8F\)	<	.	.
16C\JJ	.	.	.	.	.
16CC\LL	4.en\	4.G\	.	8een\L	.
16E\	.	.	.	.	.
16G\	.	.	.	8bn\	.
16GG\	.	.	.	.	.
16C\	.	.	.	8cc\J)	.
16c\JJ	.	.	.	.	.
!LO:LB:g=original	!LO:LB:g=original	!	!	!	!
=34	=34	=34	=34	=34	=34
!	!	!LO:N:vis=4.	!	!	!
16C\LL	8c\L 8cc	(4F\	.	(4.cc\	.
16F\	.	.	.	.	.
16C\	8a-\	.	.	.	.
16AA-\	.	.	.	.	.
16C\	8g\J	8G\)	.	.	.
16EEn\JJ	.	.	.	.	.
!	!	!	!	!LO:TX:t=cresc:problem=dynamics with extention lines	!LO:HP:a
16CC\LL	4.f\	4.A-\	[[	8ff\L	<
16F\	.	.	.	.	.
16A-\	.	.	.	8bn\	.
16AA-\	.	.	.	.	.
16C\	.	.	.	8cc\J)	.
16c\JJ	.	.	.	.	.
*	*	*clefC4	*	*	*
!	!	!LO:PB:g=original	!	!	!
=35	=35	=35	=35	=35	=35
16CC\LL	4.f\	(4.A-\	<	(8ff\L	.
16F\	.	.	.	.	.
16A-\	.	.	.	8cc\	.
16AA-\	.	.	.	.	.
16D-X\	.	.	.	8dd-X\J)	.
16d-X\JJ	.	.	.	.	.
16FF\LL	4.a-\	4.d-X\)	.	(8aa-\L	.
16A-\	.	.	.	.	.
16d-\	.	.	.	8een\	.
16D-\	.	.	.	.	.
16F\	.	.	.	8ff\J)	.
16f\JJ	.	.	.	.	.
=36	=36	=36	=36	=36	=36
16AA-\LL	4.bn\	(4.f\	.	(8ddd-X\L	.
16d-X\	.	.	.	.	.
16f\	.	.	.	8gg\	.
16F\	.	.	.	.	.
16A-\	.	.	.	8aa-\J)	.
16f\JJ	.	.	.	.	.
16D-X\LL	4.dd-X\	4.a-\)	[[	(4fff\	.
*clefG2	*	*	*	*	*
16f\	.	.	.	.	.
16a-\	.	.	.	.	.
16A-\	.	.	.	.	.
16Bn\	.	.	.	8bbn\)	[[
16bn\JJ	.	.	.	.	.
=37	=37	=37	=37	=37	=37
*clefF4	*	*	*	*2\left	*
4c\ 4en	8cc\L 8aa-	(8a-\L	p	2.ccctt\	p
.	8gg\	8g\	.	.	.
8A-\ 8f	8cc\J 8ff	8f\J	.	.	.
8C\L 8c	4.cc\ 4.een	4.en\)	.	.	.
8G\ 8g	.	.	.	.	.
8C\J 8c	.	.	.	.	.
.	.	.	.	32qqbbn\LLL	.
.	.	.	.	32qqccc\JJJ	.
!LO:LB:g=original	!LO:LB:g=original	!	!	!LO:LB:g=original	!
=38	=38	=38	=38	=38	=38
8GG\L 8G	4.een\ 4.ccc	4.cc\	.	4.cccc\	.
8C\ 8c	.	.	.	.	.
8GG\J 8G	.	.	.	.	.
!	!LO:TUP:b:problem=klamra łukowa	!	!	!	!
4.CC/ 4.C	24ee\LL	4r	.	4.cc\	.
.	24ccc\	.	.	.	.
.	24g\JJ	.	.	.	.
!	!LO:TUP:a:problem=klamra łukowa	!	!	!	!
.	24g\LL	.	.	.	.
.	24een\	.	.	.	.
.	24c\JJ	.	.	.	.
!	!LO:TUP:a:problem=klamra łukowa	!	!	!	!
!	!LO:TX:t=P:problem=mixed beam	!	!	!	!
.	24c\LL	8r	.	.	.
.	24g\	.	.	.	.
.	24En</JJ	.	.	.	.
*	*	*clefF4	*	*	*
=39	=39	=39	=39	=39	=39
*	*Xtuplet	*	*	*	*
!	!LO:TUP:problem=brak klamry	!	!	!	!
4.AAA-\ 4.AA-	(24A-</LL	4.c\	.	(4.ee-\	f
.	24C</	.	.	.	.
.	24e-</JJ	.	.	.	.
!	!LO:TX:t=P:problem=mixed beam	!	!	!	!
.	24e-</LL	.	.	.	.
.	24A-</	.	.	.	.
.	24cc\JJ	.	.	.	.
.	24cc\LL	.	.	.	.
.	24e-\	.	.	.	.
.	24aa-\JJ	.	.	.	.
!	!	!	!LO:DY:a	!	!
4.C\ 4.A- 4.e-	24aa-\LL	4.c\	f	4aa-\	.
.	24eee-\	.	.	.	.
.	24cc\JJ	.	.	.	.
.	24cc\LL	.	.	.	.
.	24aa-\	.	.	.	.
.	24e-\JJ	.	.	.	.
!	!	!	!	!LO:TX:b:i:t=espress(ivo).	!
.	24e-\LL	.	.	8ee-\	.
.	24cc\	.	.	.	.
.	24A-\JJ)	.	.	.	.
=40	=40	=40	=40	=40	=40
4.CCC\ 4.CC	24A-</LL	(4E-\	.	4.cc\)	.
.	24C</	.	.	.	.
.	24e-</JJ	.	.	.	.
!	!LO:TX:t=P:problem=mixed beam	!	!	!	!
.	24e-</LL	.	.	.	.
.	24A-</	.	.	.	.
.	24cc\JJ	.	.	.	.
.	24cc\LL	8F-X\)	.	.	.
.	24f-X\	.	.	.	.
.	24aa-\JJ	.	.	.	.
8DDD-X/L 8DD-X	24aa-\LL	4.A-\	.	(4.ff-X\	.
.	24fff-X\	.	.	.	.
.	24dd-X\JJ	.	.	.	.
8AAA-/ 8AA-	24dd-\LL	.	.	.	.
.	24aa-\	.	.	.	.
.	24f-X\JJ	.	.	.	.
8DD-/J 8D-X	24f-\LL	.	.	.	.
.	24dd-\	.	.	.	.
.	24A-\JJ	.	.	.	.
!LO:LB:g=original	!LO:LB:g=original	!LO:LB:g=original	!	!	!
=41	=41	=41	=41	=41	=41
4FF-X\ 4F-X	24f-X\LL	(4c\	.	8a-\L	.
.	24cc\	.	.	.	.
.	24A-\JJ	.	.	.	.
.	24A-</LL	.	.	8g\	.
.	24f-X</	.	.	.	.
.	24C</JJ	.	.	.	.
8FFF-X\ 8FF-	24C</LL	16A-\LL	.	8a-\J)	.
.	24A-</	.	.	.	.
.	.	16F-X\JJ)	.	.	.
.	24FF-X</JJ	.	.	.	.
!	!	!LO:TX:t=P:problem=♭ przed tr	!	!	!
4.EEE-\ 4.EE-	24r<	4.E-tt\	.	(4cc\	.
.	24GG</LL	.	.	.	.
.	24G</JJ	.	.	.	.
.	24D</LL	.	.	.	.
.	24G</	.	.	.	.
.	24g</JJ	.	.	.	.
.	24d\LL	.	.	8g\	.
.	24g\	.	.	.	.
.	24gg\JJ	.	.	.	.
=42	=42	=42	=42	=42	=42
4.AAA-/ 4.AA-	24aa-\LL	4.C\	.	4.a-\)	.
.	24eee-\	.	.	.	.
.	24cc\JJ	.	.	.	.
.	24ee-\LL	.	.	.	.
.	24ccc\	.	.	.	.
.	24a-\JJ	.	.	.	.
.	24cc\LL	.	.	.	.
.	24aa-\	.	.	.	.
.	24e-\JJ	.	.	.	.
4.B--\ 4.d	24g\LL	4.G\	.	4.ee-\	.
.	24ee-\	.	.	.	.
.	24d\JJ	.	.	.	.
.	24d\LL	.	.	.	.
.	24g\	.	.	.	.
.	24G\JJ	.	.	.	.
.	24G</LL	.	.	.	.
.	24e-</	.	.	.	.
.	24D</JJ	.	.	.	.
!	!	!	!	!LO:LB:g=original	!
=43	=43	=43	=43	=43	=43
4.AAA-\ 4.AA-	24A-</LL	4.c\	.	(4.ee-\	.
.	24C</	.	.	.	.
.	24e-</JJ	.	.	.	.
.	24e-\LL	.	.	.	.
.	24A-\	.	.	.	.
.	24cc\JJ	.	.	.	.
.	24cc\LL	.	.	.	.
.	24e-\	.	.	.	.
.	24aa-\JJ	.	.	.	.
!LO:LB:g=original	!LO:LB:g=original	!	!	!	!
=-	=-	=-	=-	=-	=-
4.C\ 4.G 4.e-	24aa-\LL	4.c\	.	4aa-\	.
.	24eee-\	.	.	.	.
.	24cc\JJ	.	.	.	.
.	24cc\LL	.	.	.	.
.	24aa-\	.	.	.	.
.	24e-\JJ	.	.	.	.
.	24e-\LL	.	.	8ee-\	.
.	24cc\	.	.	.	.
.	24A-\JJ	.	.	.	.
=44	=44	=44	=44	=44	=44
4.CCC\ 4.CC	24A-</LL	(4En\	.	4.cc\)	.
.	24C</	.	.	.	.
.	24en</JJ	.	.	.	.
.	24e\LL	.	.	.	.
.	24A-\	.	.	.	.
.	24cc\JJ	.	.	.	.
.	24cc\LL	8F\)	.	.	.
.	24f\	.	.	.	.
.	24aa-\JJ	.	.	.	.
8DDD/L 8DD	24aa-\LL	4.A-\	.	4.ff\	p
.	24dd\	.	.	.	.
.	24fff\JJ	.	.	.	.
8AAA-/ 8AA-	24fff\LL	.	.	.	.
*	*8va	*	*	*	*
.	24aaa-\	.	.	.	.
.	24dddd\JJ	.	.	.	.
8BBBn/J 8BBn	24dddd\LL	.	.	.	.
.	24fff\	.	.	.	.
.	24aaaa-\JJ	.	.	.	.
=45	=45	=45	=45	=45	=45
8DD/L 8D	24fff\LL	(4A-\	p	(8f/L	.
.	24ffff\	.	.	.	.
.	24bbn\JJ	.	.	.	.
*	*X8va	*	*	*	*
8CC/ 8C	24aa-\LL	.	.	8en/	.
.	24eeen\	.	.	.	.
.	24cc\JJ	.	.	.	.
8DD/J 8D	24bn\LL	16G\LL	.	8f/J)	.
.	24ff\	.	.	.	.
.	.	16F\JJ)	.	.	.
.	24d\JJ	.	.	.	.
4CC/ 4C	24en\LL	4.Entt\	.	(4a-/	.
.	24cc\	.	.	.	.
.	24A-\JJ	.	.	.	.
.	24A-/LL	.	.	.	.
.	24e/	.	.	.	.
.	24C</JJ	.	.	.	.
8CCC\ 8CC	24C</LL	.	.	8g/)	.
.	24G</	.	.	.	.
.	24EEn</JJ	.	.	.	.
!LO:LB:g=original	!LO:LB:g=original	!	!	!	!
=46	=46	=46	=46	=46	=46
4.FFF\ 4.FF	24r<	4F\	.	4f/	.
.	24FF</LL	.	.	.	.
.	24F</JJ	.	.	.	.
.	24CC</LL	.	.	.	.
.	24F</	.	.	.	.
.	24f</JJ	.	.	.	.
.	24c\LL	8r	.	8r	.
.	24f\	.	.	.	.
.	24ff\JJ	.	.	.	.
4F\ 4d	24Bn\LL	4r	.	4r	.
.	24f\	.	.	.	.
.	24ff\JJ	.	.	.	.
.	24bn\LL	.	.	.	.
.	24ff\	.	.	.	.
.	24fff\JJ	.	.	.	.
8c\	24ccc\LL	8r	.	8r	.
.	24fff\	.	.	.	.
*	*8va	*	*	*	*
.	24ffff\JJ	.	.	.	.
!	!	!LO:LB:g=original	!	!	!
=47	=47	=47	=47	=47	=47
8DD/L 8D	24fff\LL	(4A-\	.	(8f/L	.
.	24dddd\	.	.	.	.
.	24bbn\JJ	.	.	.	.
*	*X8va	*	*	*	*
8CC/ 8C	24aa-\LL	.	.	8en/	.
.	24eeen\	.	.	.	.
.	24cc\JJ	.	.	.	.
8DD/J 8D	24bn\LL	16G\LL	.	8f/J)	.
.	24ff\	.	.	.	.
.	.	16F\JJ)	.	.	.
.	24d\JJ	.	.	.	.
4CC/ 4C	24en\LL	4.Entt\	.	(4a-/	.
.	24cc\	.	.	.	.
.	24A-\JJ	.	.	.	.
!	!LO:TX:t=P:problem=mixed beam	!	!	!	!
.	24A-\LL	.	.	.	.
.	24e\	.	.	.	.
.	24C</JJ	.	.	.	.
8CCC\ 8CC	24C</LL	.	.	8g/)	.
.	24G</	.	.	.	.
.	24EEn</JJ	.	.	.	.
!LO:LB:g=original	!LO:LB:g=original	!	!	!LO:LB:g=original	!
=48	=48	=48	=48	=48	=48
!	!	!	!	!	!LO:DY:a
4.FFF\ 4.FF	8r<	4.F\	.	(16f\LL	p <
.	.	.	.	16en\	.
.	8F</L 8A-<	.	.	16f\	.
.	.	.	.	16a-\	.
.	8A-</J 8<f	.	.	16cc\	.
.	.	.	.	16een\JJ)	.
4.AAA-\ 4.AA-	8r<	(8.A-\L	.	(16ff\LL	[
.	.	.	.	16ee\)	.
.	8F</L 8c<	.	.	(16ff\	.
.	.	16En\Jk	.	16cc\)	.
!	!	!	!LO:HP:a	!	!
.	8c</J 8f<	8F\)	<	(16cc\	.
.	.	.	.	16a-\JJ)	.
=49	=49	=49	=49	=49	=49
4.AAA-\ 4.AA-	8r	4.A-\	.	(16a-\LL	<
.	.	.	.	16g\	.
.	8A-/L 8c	.	.	16a-\	.
.	.	.	.	16cc\	.
.	8c/J 8a-	.	.	16ff-X\	.
.	.	.	.	16gg\JJ)	.
4.CC\ 4.C	8r	(8.c\L	.	(16aa-\LL	[
.	.	.	.	16gg\)	.
.	8A-/L 8e-	.	.	(16aa-\	.
.	.	16G\Jk	.	16ee-\)	.
.	8e-/J 8a-	8A-\)	[	(16ee-\	.
.	.	.	.	16cc\JJ)	.
=50	=50	=50	=50	=50	=50
8.AAA-/L 8.AA-	8r	(4e-\	.	(16cc\LL	.
.	.	.	.	16dd\	.
.	8F#X/L 8e-	.	.	16bn\	.
16GGG/Jk 16GG	.	.	.	16cc\	.
8AAA-/ 8AA-	8e-/J 8f	16c\LL	.	16ccc\	.
.	.	16A-\JJ)	.	16cc\JJ)	.
4.GGG/ 4.GG	8r	4.Gtt\	.	(16ee-\LL	f
.	.	.	.	16gg\	.
.	8G/L 8e-	.	.	16eee-\	.
.	.	.	.	16ccc\	.
.	8d/J 8g	.	.	16bbn\	.
.	.	.	.	16gg\JJ)	.
!	!	!	!	!LO:PB:g=original	!
=51	=51	=51	=51	=51	=51
4.CC/ 4.C	8r	[4.c\	.	(16ccc\LL	.
.	.	.	.	16eee-\	.
.	8G/L 8e-	.	.	16gg\	.
.	.	.	.	16ccc\	.
.	8e-/J 8g	.	.	16ee-\	.
.	.	.	.	16gg\JJ)	.
4.c\ 4.a-	24ff#X\LL	4.c\]	.	4.cc\	.
.	24ccc\	.	.	.	.
.	24cc\JJ	.	.	.	.
.	24cc\LL	.	.	.	.
.	24ff#\	.	.	.	.
.	24f#X\JJ	.	.	.	.
.	24f#\LL	.	.	.	.
.	24cc\	.	.	.	.
.	24c\JJ	.	.	.	.
!LO:LB:g=original	!LO:LB:g=original	!LO:LB:g=original	!	!	!
=52	=52	=52	=52	=52	=52
!	!	!	!	!	!LO:DY:a
4.CCC\ 4.CC	24c/LL	4.e-\	.	(4.gg\	f
.	24E-/	.	.	.	.
.	24g/JJ	.	.	.	.
.	24g/LL	.	.	.	.
.	24c/	.	.	.	.
.	24ee-/JJ	.	.	.	.
.	24ee-\LL	.	.	.	.
.	24g\	.	.	.	.
.	24ccc\JJ	.	.	.	.
4.E-\ 4.c 4.g	24ccc\LL	4.e-\	f	4ccc\	.
.	24ggg\	.	.	.	.
.	24ee-\JJ	.	.	.	.
.	24ee-\LL	.	.	.	.
.	24ccc\	.	.	.	.
.	24g\JJ	.	.	.	.
.	24g/LL	.	.	8gg\)	.
.	24ee-/	.	.	.	.
.	24c/JJ	.	.	.	.
=53	=53	=53	=53	=53	=53
4.EEE-/ 4.EE-	24Bn/LL	(4Bn\	.	(4.ee-\	.
.	24E-/	.	.	.	.
.	24g/JJ	.	.	.	.
.	24g\LL	.	.	.	.
.	24B\	.	.	.	.
.	24ee-\JJ	.	.	.	.
.	24ee-\LL	8c\)	.	.	.
.	24g\	.	.	.	.
.	24ccc\JJ	.	.	.	.
8CC\L 8C	24ccc\LL	4.e-\	.	4.aa-\)	.
.	24aaa-\	.	.	.	.
.	24ee-\JJ	.	.	.	.
8EE-\ 8E-	24ee-\LL	.	.	.	.
.	24ccc\	.	.	.	.
.	24a-\JJ	.	.	.	.
8FF#X\J 8F#X	24a-\LL	.	.	.	.
.	24ee-\	.	.	.	.
.	24c\JJ	.	.	.	.
=54	=54	=54	=54	=54	=54
!	!	!	!	!	!LO:DY:a
8AAA-\L 8AA-	24c/LL	(4e-\	.	(8cc\L	p
.	24a-/	.	.	.	.
.	24F#X/JJ	.	.	.	.
8GGG\ 8GG	24G</LL	.	.	8bn\	.
.	24e-</	.	.	.	.
.	24BBn</JJ	.	.	.	.
8AAA-\J 8AA-	24C</LL	16d\LL	.	8cc\J)	.
.	24A-</	.	.	.	.
.	.	16c\JJ)	.	.	.
.	24FF#X</JJ	.	.	.	.
!LO:PB:g=original	!LO:PB:g=original	!	!	!	!
=-	=-	=-	=-	=-	=-
4.GGG/ 4.GG	24r<	4.Bntt\	.	(4ee-\	.
.	24GG</LL	.	.	.	.
.	24G</JJ	.	.	.	.
.	24BBn</LL	.	.	.	.
.	24G</	.	.	.	.
.	24g</JJ	.	.	.	.
.	24Bn\LL	.	.	8dd\)	.
.	24g\	.	.	.	.
.	24gg\JJ	.	.	.	.
=55	=55	=55	=55	=55	=55
4.CC/ 4.C	8r	4.c\	.	(16cc\LL	<
.	.	.	.	16bn\	.
.	8c/L 8e-	.	.	16cc\	.
.	.	.	.	16ee-\	.
.	8e-/J 8cc	.	.	16gg\	.
.	.	.	.	16bbn\JJ)	.
!	!	!	!	!LO:LB:g=original	!
=-	=-	=-	=-	=-	=-
8.AAA-/L 8.AA-	8r	(4e-\	f	(16ccc\LL	[
.	.	.	.	16ddd\	.
.	8F#X/L 8e-	.	.	16bbn\	f
16GGG/Jk 16GG	.	.	.	16ddd\	.
8AAA-/ 8AA-	8e-/J 8f#X	8c\)	.	16ccc\	.
.	.	.	.	16aa-\JJ)	.
=56	=56	=56	=56	=56	=56
4.EEE-/ 4.EE-	8r	(4Bn\	.	(16gg\LL	>
.	.	.	.	16aa-\	.
.	8G/L 8e-	.	.	16ff#X\	.
.	.	.	.	16aa-\	]
.	8c/J 8g	8G\)	.	16gg\	.
.	.	.	.	16ee-\JJ)	.
4.GGG/ 4.GG	8r	(8F#X\L	.	(16dd\LL	.
.	.	.	.	16ee-\	.>
.	8c/L 8a-	8G\	.	16cc\	.
.	.	.	.	16ee-\	.
.	8Bn/J 8bn	8GG\J)	.	16dd\	]
.	.	.	.	16bn\JJ)	.
!	!	!LO:LB:g=original	!	!	!
=57	=57	=57	=57	=57	=57
4.CC\ 4.C	8c/L	(4C/	.	(16cc\LL	.
.	.	.	.	16bn\	<
.	8c/ 8e-	.	.	16cc\	.
.	.	.	.	16ee-\	.
.	8e-/J 8cc	8c\)	.	16gg\	.
.	.	.	.	16bbn\JJ)	.
8.AAA-/L 8.AA-	8r	(4e-\	.	(16ccc\LL	[
.	.	.	.	16ddd\	f
.	8F#X/L 8e-	.	.	16bb\	.
16GGG/Jk 16GG	.	.	.	16ddd\	.
8AAA-/ 8AA-	8e-/J 8f#X	8c\)	.	16ccc\	.
.	.	.	.	16aa-\JJ)	.
!LO:LB:g=original	!LO:LB:g=original	!	!	!	!
=58	=58	=58	=58	=58	=58
4.EEE-/ 4.EE-	8r	(4Bn\	.	(16gg\LL	>
.	.	.	.	16aa-\	.
.	8G/L 8e-	.	.	16ff#X\	.
.	.	.	.	16aa-\	.
.	8c/J 8g	8G\)	.	16gg\	.
.	.	.	.	16ee-\JJ)	]
4.GGG/ 4.GG	8r	(8F#X\L	.	(16dd\LL	>
.	.	.	.	16ee-\	.
.	8c/L 8a-	8G\	.	16cc\	.
.	.	.	.	16ee-\	.
.	8Bn/J 8bn	8GG\J)	.	16dd\	]
.	.	.	.	16bn\JJ)	.
!	!	!	!	!LO:LB:g=original	!
=59	=59	=59	=59	=59	=59
!	!	!	!	!	!LO:HP:a
4FFF#X/ 4FF#X	8r	(4E-\	.	(16cc\LL	<
.	.	.	.	16dd\	.
.	8c/L 8a-	.	.	16bn\	.
.	.	.	.	16cc\	[
8GGG/ 8GG	8c/J 8g	8C\)	<	16ccc\	.
.	.	.	.	16cc\JJ)	.
!	!	!	!	!	!LO:HP:a
4.AAA-/ 4.AA-	8r	(4F#X\	.	(16dd\LL	<
.	.	.	.	16ee-\	.
.	8c\L 8f#X	.	.	16cc\	.
.	.	.	.	16dd\	[
.	8f#\J 8cc	8D\)	[[	16ccc\	.
.	.	.	.	16dd\JJ)	.
=60	=60	=60	=60	=60	=60
!	!	!LO:TX:t=P:problem=♭ przed tr	!	!	!LO:HP:a
4.GGG/ 4.GG	8r	4.Gtt\	>	(16ee-\LL	<
.	.	.	.	16gg\	.
.	8G/L 8e-	.	.	16eee-\	[
.	.	.	.	16ccc\	.
.	8d/J 8g	.	.	16bbn\	.
.	.	.	.	16gg\JJ)	.
.	.	32qqF#X\LLL	]	.	.
.	.	32qqG\JJJ	.	.	.
4.CCC/ 4.CC	8r	8E-\	.	(16ccc\LL	>
.	.	.	.	16aa-\	.
.	8G/L 8e-	4r	.	16gg\	.
.	.	.	.	16ff\	.
.	8e-/J 8g	.	.	16ee-\	]
.	.	.	.	16dd\JJ)	.
=61	=61	=61	=61	=61	=61
!	!	!	!	!	!LO:HP:a
4AAA-/ 4AA-X	8r	(4E-\	.	(16cc\LL	<
.	.	.	.	16dd\	.
.	8c/L 8f#X	.	.	16bn\	[
.	.	.	.	16cc\	.
8GGG/ 8GG	8c/J 8g	8C\)	.	16ccc\	.
.	.	.	.	16cc\JJ)	.
!	!	!	!	!	!LO:DY:a
4.FFF#X/ 4.FF#X	8r	(4F#X\	.	(16dd\LL	f
.	.	.	.	16ee-\	.
.	8An/L 8an	.	.	16cc#X\	.
.	.	.	.	16dd\	.
.	8A/J 8d	8D\)	.	16d\	.
.	.	.	.	16dd\JJ)	.
!	!	!LO:LB:g=original	!	!LO:LB:g=original	!
=62	=62	=62	=62	=62	=62
!	!	!LO:TX:t=P:problem=♭ przed tr	!	!	!
4.GGG/ 4.GG	8r	4.dtt\	.	(16b-\LL	.
.	.	.	.	16dd\	.
.	8B-/L 8d	.	.	16bb-\	.
.	.	.	.	16gg\	.
.	8d/J 8an	.	.	16ff#X\	.
.	.	.	.	16dd\JJ)	.
!	!	!LO:TX:t=P:problem=♭ przed tr	!	!LO:TX:t=dim_in_uen_do.:problem=dynamics with extention lines	!LO:HP:a:t=diminuendo
4.GGG/ 4.GG	8r	4.B-TT\	p	(16g\LL	>
.	.	.	.	16b-\	.
.	8G/L 8B-	.	.	16gg\	.
.	.	.	.	16ee-\	.
.	8B-/J 8f-X	.	.	16dd\	.
.	.	.	.	16a-\JJ)	.
!LO:LB:g=original	!LO:LB:g=original	!	!	!	!
=63	=63	=63	=63	=63	=63
!	!	!LO:TX:t=P:problem=♭ przed tr	!	!	!
4.GGG\ 4.GG	8r<	4.Gtt\	.	(16e-\LL	.
.	.	.	.	16g\	.
.	8E-</L 8G<	.	.	16ee-\	.
.	.	.	.	16cc\	.
.	8G</J 8d<	.	.	16bn\	.
.	.	.	.	16g\JJ)	.
.	.	32qqF#X\LLL	.	.	.
.	.	32qqG\JJJ	.	.	.
4.GGG\ 4.GG	4G</ 4<c	(4E-\	.	(16cc\LL	.
.	.	.	.	16a-\	]
.	.	.	.	16g\	.
.	.	.	.	16e-\	.
.	8d/ 8f#X	8F#\)	.	16d\	.
.	.	.	.	16c\JJ)	.
=64	=64	=64	=64	=64	=64
[4.GGG/ [4.GG	[4.G/ [4.g	4.D\	.	(16Bn/LL	<
.	.	.	.	16G/	.
.	.	.	.	16B/	.
.	.	.	.	16d/	.
.	.	.	.	16g/	.
.	.	.	.	16bn/JJ)	.
4.GGG/] 4.GG]	4.G/] 4.g]	4.Bn\	.	(16g\LL	.
.	.	.	.	16d\	.
.	.	.	.	16g\	.
.	.	.	.	16b\	.
.	.	.	.	16dd\	.
.	.	.	.	16gg\JJ)	[[
!	!	!	!	!LO:LB:g=original	!
=65	=65	=65	=65	=65	=65
!	!	!	!	!	!LO:DY:a
4.CCC/ 4.CC	24c/LL	4.c^^\	.	(4.gg^^\	f
.	24E-/	.	.	.	.
.	24g/JJ	.	.	.	.
.	24g/LL	.	.	.	.
.	24c/	.	.	.	.
.	24ee-/JJ	.	.	.	.
.	24ee-\LL	.	.	.	.
.	24g\	.	.	.	.
.	24ccc\JJ	.	.	.	.
4.E-\ 4.c 4.g	24ccc\LL	4.e-^^\	.	4.ccc^^\)	.
.	24ggg\	.	.	.	.
.	24ee-\JJ	.	.	.	.
.	24ee-\LL	.	.	.	.
.	24ccc\	.	.	.	.
.	24g\JJ	.	.	.	.
.	24g\LL	.	.	.	.
.	24ee-\	.	.	.	.
.	24c\JJ	.	.	.	.
=66	=66	=66	=66	=66	=66
!	!	!	!	!LO:TX:t=P:problem=mixed beam	!
[4.GGG/ [4.GG	[4.G/ [4.g	4.d\	.	16bbn\LL	.
.	.	.	.	(16G/	.
.	.	.	.	16Bn/	.
.	.	.	.	16d/	.
.	.	.	.	16g/	.
.	.	.	.	16bn/JJ)	.
!LO:N:vis=4	!	!	!	!	!
4.GGG/] 4.GG]	4.G/] 4.g]	4.Bn\	.	(16g\LL	.
.	.	.	.	16d\	.
.	.	.	.	16g\	.
.	.	.	.	16b\	.
.	.	.	.	16dd\	.
.	.	.	.	16gg\JJ)	.
!LO:LB:g=original	!LO:LB:g=original	!	!	!	!
=67	=67	=67	=67	=67	=67
4.EEE-/ 4.EE-	24Bn/LL	(4G\	.	(4.ee-^^\	.
.	24E-/	.	.	.	.
.	24g/JJ	.	.	.	.
.	24g/LL	.	.	.	.
.	24B/	.	.	.	.
.	24ee-/JJ	.	.	.	.
.	24ee-\LL	8A-\)	.	.	.
.	24a-\	.	.	.	.
.	24ccc\JJ	.	.	.	.
8CC/L 8C	24ccc\LL	4.c\	.	4.aa-^^\)	.
.	24aaa-\	.	.	.	.
.	24ee-\JJ	.	.	.	.
8EE-/ 8E-	24ee-\LL	.	.	.	.
.	24ccc\	.	.	.	.
.	24a-\JJ	.	.	.	.
8FF#X/J 8F#X	24a-\LL	.	.	.	.
.	24ee-\	.	.	.	.
.	24c\JJ	.	.	.	.
!	!	!LO:LB:g=original	!	!	!
=68	=68	=68	=68	=68	=68
8AAA-\L 8AA-	24c/LL	(4e-\	.	8cc\L	.
.	24a-/	.	.	.	.
.	24F#X/JJ	.	.	.	.
8GGG\ 8GG	24G</LL	.	.	8bn\	.
.	24e-</	.	.	.	.
.	24BBn</JJ	.	.	.	.
8AAA-\J 8AA-	24C</LL	16d\LL	<	8cc\J	.
.	24A-</	.	.	.	.
.	.	16c\JJ)	.	.	.
.	24FF#X</JJ	.	.	.	.
4.GGG\ 4.GG	24r<<	4.Bntt\	.	(4ee-\	<
.	24GG/LL	.	.	.	.
.	24G</JJ	.	.	.	.
.	24BBn</LL	.	.	.	.
.	24G</	.	.	.	.
.	24g</JJ	.	.	.	.
.	24Bn\LL	.	.	8dd\)	.
.	24g\	.	.	.	.
.	24gg\JJ	.	.	.	.
!	!	!	!	!LO:LB:g=original	!
=69	=69	=69	=69	=69	=69
*	*	*clefC4	*	*	*
8CC\L 8C	24e-\LL	(4f#X\	.	8ee-\L	f
.	24cc\	.	.	.	.
.	24A-\JJ	.	.	.	.
!	!LO:TX:t=P:problem=mixed beam	!	!	!	!
8BBBn\ 8BBn	24Bn\LL	.	.	8dd\	.
.	24a-\	.	.	.	.
.	24D/JJ	.	.	.	.
8CC\J 8C	24E-</LL	8e-\)	.	8ee-\J	.
.	24c</	.	.	.	.
.	24AA-</JJ	.	.	.	.
4.BBB\ 4.BB	24r<	4.dtt\	[[	(4gg\	.
.	24BBn</LL	.	.	.	.
.	24Bn</JJ	.	.	.	.
!	!LO:TX:t=P:problem=mixed beam	!	!	!	!
.	24D</LL	.	.	.	.
.	24B</	.	.	.	.
.	24bn\JJ	.	.	.	.
.	24d\LL	.	.	8dd\)	.
.	24b\	.	.	.	.
.	24bbn\JJ	.	.	.	.
!LO:LB:g=original	!LO:LB:g=original	!	!	!	!
=70	=70	=70	=70	=70	=70
!	!	!LO:TX:t=P:problem=♭ przed tr	!	!	!LO:HP:t=dim:ext=ut
4.DD\ 4.D	24r<	2.gtt\	>]	(4bbn\	>
.	24D</LL	.	.	.	.
.	24d</JJ	.	.	.	.
.	24G\LL	.	.	.	.
.	24d\	.	.	.	.
.	24dd\JJ	.	.	.	.
.	24g\LL	.	.	8gg\)	.
.	24dd\	.	.	.	.
.	24ddd\JJ	.	.	.	.
4.GG\ 4.G	24r<	.	.	(4ddd\	.
.	24G</LL	.	.	.	.
.	24g</JJ	.	.	.	.
.	24Bn\LL	.	.	.	.
.	24g\	.	.	.	.
.	24gg\JJ	.	.	.	.
.	24bn\LL	.	.	8bb\)	]]
.	24gg\	.	.	.	.
.	24ggg\JJ	.	.	.	.
=71	=71	=71	=71	=71	=71
*	*8va	*	*	*2\right	*
4.GGG/ 4.GG	24ggg\LL 24dddd	4bn\	.	2.ggg\	pp
.	24gggg\	.	.	.	.
.	24ggg\JJ 24dddd	.	.	.	.
.	24gggg\LL	.	.	.	.
*	*X8va	*	*	*	*
!	!LO:TX:a:t=loco	!	!	!	!
.	24gg\ 24ddd	.	.	.	.
.	24ggg\JJ	.	.	.	.
.	(24gg\LL 24ddd	8r	.	.	.
.	24ggg\)	.	.	.	.
.	(24g\JJ 24dd	.	.	.	.
*Xtuplet	*	*	*	*	*
!LO:TUP:problem=brak klamry	!	!	!	!	!
24r	24gg\)	4r	.	.	.
(24G\LL 24d	24r	.	.	.	.
24g\JJ)	24r	.	.	.	.
(24G\LL 24d	12r	.	.	.	.
24g\)	.	.	.	.	.
(24GG\JJ 24D	24r	.	.	.	.
24G\LL)	12r	8r	.	.	.
(24GG\ 24D	.	.	.	.	.
24G\JJ)	24r	.	.	.	.
=72	=72	=72	=72	=72	=72
*2\right	*2\left	*	*	*	*
2.CC\ 2.C	2.c\ 2.cc	2.e-\	.	(4.gg\	<
.	.	.	.	4aa-\	.
.	.	.	.	8bbn\)	[[
=73	=73	=73	=73	=73	=73
*	*2\right	*	*	*	*
!	!	!	!LO:DY:a	!	!
2.EE-\ 2.E-	2.c\ 2.cc	4.F/	mf	(4ccc\	p
.	.	.	.	8aa-\	.
.	.	(4e-\	.	4.gg\)	.
.	.	8c\)	.	.	.
!	!	!LO:LB:g=original	!	!LO:LB:g=original	!
=74	=74	=74	=74	=74	=74
4.EE-\ 4.E-	8c\L 8cc	(8A-\L	.	(8ff#X\L	<
.	8Bn\ 8bn	8G\	.	8ee-\	.
.	8c\J 8cc	8A-\J)	.	[8ff#\J	.
4DD/ 4D	4d\ 4dd	(4Bn\	.	8ff#\L]	.
.	.	.	.	8gg\)	.
8CC/ 8C	[8e-\ [8ee-	8c\)	.	8aa-\J	[[
!LO:LB:g=original	!LO:LB:g=original	!	!	!	!
=75	=75	=75	=75	=75	=75
!	!	!	!	!LO:TX:t=P:problem=♭ przed tr	!
4GG\ 4G	8e-\L] 8ee-]	(4Bn\	.	(4.ggtt\	>
.	8d\ 8dd	.	.	.	.
8EE-\ 8E-	8c\J 8cc	8c\	.	.	.
8GGG/L 8GG	4.Bn\ 4.bn	4.d\)	.	8bbn\L	]
8DD/ 8D	.	.	.	8ff#X\	.
8GGG/J 8GG	.	.	.	8gg\J)	.
=76	=76	=76	=76	=76	=76
4.CC/ 4.C	4.c\ 4.cc	4.e-\	.	(4.gg\	f
.	.	.	.	32qqaa-\LLL	.
.	.	.	.	32qqgg\	.
.	.	.	.	32qqff#X\	.
.	.	.	.	32qqgg\JJJ	.
4.EE-/ 4.E-	4.c\ 4.cc	4.e-\	f	4ccc\	.
.	.	.	.	8gg\)	.
=77	=77	=77	=77	=77	=77
4.EEE-/ 4.EE-	4Bn\ 4bn	(4G\	.	(4.ee-^^\	>
.	8c\ 8cc	8A-\)	.	.	.
8CC/L 8C	4.e-\ 4.ee-	4.c\	.	4.aa-\)	]]
8EE-/ 8E-	.	.	.	.	.
8FF#X/J 8F#X	.	.	.	.	.
!	!	!	!	!LO:LB:g=original	!
=78	=78	=78	=78	=78	=78
!	!	!	!	!	!LO:DY:t=p
8AAA-/L 8AA-	8F#X/L 8f#X	4.e-\	.	(8cc\L	p
8GGG/ 8GG	8E-/ 8e-	.	.	8bn\	.
8AAA-/J 8AA-	8F#/J 8f#	.	.	8cc\J	.
4.GGG/ 4.GG	4.G/ 4.g	4.Bn\	>	4ee-\	.
.	.	.	.	8dd\)	.
=79	=79	=79	=79	=79	=79
8EE-\L 8E-	4.G/ 4.g	4.G\	.	(4bn\	.
8DD\ 8D	.	.	.	.	.
8CC\J 8C	.	.	.	8cc\)	.
4.GGG/ 4.GG	4.Bn/ 4.bn	4.Bn\	]]	4.dd\	.
!	!	!LO:LB:g=original	!	!	!
=80	=80	=80	=80	=80	=80
!	!	!LO:TX:a:t=2	!	!LO:TX:a:t=2	!
8G\L	16dd\LL	2r	.	2r	.
.	16bn\	.	.	.	.
8Bn\ 8g	16dd\	.	.	.	.
.	16gg\	.	.	.	.
8B\J 8g	16dd\	.	.	.	.
.	16gg\JJ	.	.	.	.
8G\L	16ee-\LL	.	.	.	.
.	16dd\	.	.	.	.
8c\ 8g	16ee-\	4r	.	4r	.
.	16gg\	.	.	.	.
8c\J 8g	16ff#X\	.	.	.	.
.	16cc\JJ	.	.	.	.
!LO:LB:g=original	!LO:LB:g=original	!	!	!	!
=81	=81	=81	=81	=81	=81
8GG\L	16bn\LL	2r	.	2r	.
.	16gg\	.	.	.	.
8D\ 8Bn	16b\	.	.	.	.
.	16g\	.	.	.	.
8D\J 8B	16b\	.	.	.	.
.	16g\JJ	.	.	.	.
8GG\L	16cc\LL	.	.	.	.
.	16bn\	.	.	.	.
8E-\ 8A-	16cc\	4r	.	4r	.
.	16ee-\	.	.	.	.
8D\J 8c	16dd\	.	.	.	.
.	16f#X\JJ	.	.	.	.
*	*	*clefF4	*	*	*
!	!	!	!	!LO:PB:g=original	!
=82	=82	=82	=82	=82	=82
!	!	!	!	!	!LO:DY:a:t=f
8GG\L	16dd\LL	2.GG/	.	(4.d/	f
.	16g\	.	.	.	.
8Bn\ 8g	16dd\	.	.	.	.
.	16gg\	.	.	.	.
8B\J 8g	16ddd\	.	.	.	.
.	16ggg\JJ	.	.	.	.
8G\L	16eee-\LL	.	.	4e-/	.
.	16ddd\	.	.	.	.
8B-X\ 8g	16eee-\	.	.	.	.
.	16gg\	.	.	.	.
8A-\J 8e-	16gg\	.	.	8g/)	.
.	16cc#X\JJ	.	.	.	.
=83	=83	=83	=83	=83	=83
!	!	!	!	!	!LO:HP:a:t=dim.
8D\L	16dd\LL	2.AAn/	.	(>4.f#X/	>
.	16ff#X\	.	.	.	.
8A-\J 8d	16dd\	.	.	.	.
.	16f#X\JJ	.	.	.	.
8r	16f#/LL	.	.	.	.
.	16d/JJ	.	.	.	.
4B-\ 4e-	16g/LL	.	.	4g/	.
.	16f#X/	.	.	.	.
.	16g/	.	.	.	.
.	16B-/	.	.	.	.
8AA-/	16A-/	.	.	8an/)	.
.	16c#X/JJ	.	.	.	.
=84	=84	=84	=84	=84	=84
!	!	!	!	!	!LO:DY:a:t=p
16C#X\LL	4.F#X/ 4.d	8DD/	.	2.An/	p
16D\	.	.	.	.	.
16D\	.	4r	.	.	.
16DD\JJ	.	.	.	.	.
16DD/LL	.	.	.	.	.
16DDD/JJ	.	.	.	.	.
16G/LL	4.A-/ 4.c#X	4r	.	.	.
16E-/JJ	.	.	.	.	.
16F#X\LL	.	.	.	.	.
16A-\	.	.	.	.	.
16G\	.	8r	.	.	.
16E-\JJ	.	.	.	.	.
!LO:LB:g=original	!LO:LB:g=original	!	!	!	!
=85	=85	=85	=85	=85	=85
!	!	!LO:TX:a:t=1	!	!	!
16C#X\LL	4.F#X/ 4.d	2r	.	(4.An/	.
16D\	.	.	.	.	.
16D\	.	.	.	.	.
16DD\JJ	.	.	.	.	.
16DD/LL	.	.	.	.	.
16DDD/JJ	.	.	.	.	.
16c#X/LL	4.e-/ 4.g	.	.	4.B-/)	.
16G/JJ	.	.	.	.	.
16B-\LL	.	4r	.	.	.
16d\	.	.	.	.	.
16c#\	.	.	.	.	.
16B-\JJ	.	.	.	.	.
!	!	!LO:PB:g=original	!	!	!
=86	=86	=86	=86	=86	=86
!	!	!	!LO:DY:a	!	!
16c#X\LL	4An/ 4f#X	4An\	f	4r	.
16d\	.	.	.	.	.
16d\	.	.	.	.	.
16D\	.	.	.	.	.
!	!	!	!	!LO:TX:a:t=pizz.	!
16D\	16A-X/LL 16c 16f#	(16A-X\LL	.	8cc'\	.
16DD\JJ	16a-X/JJ	16G-X\JJ)	.	.	.
16cn\LL	4A-/ 4fn	4A-\	.	4r	.
16d-X\	.	.	.	.	.
16d-\	.	.	.	.	.
16D-X\	.	.	.	.	.
16D-\	16G/LL 16Bn 16f	(16Gn\LL	.	8bn'\	.
16DD-X\JJ	16g/JJ	16F\JJ)	.	.	.
!	!	!	!	!LO:LB:g=original	!
=87	=87	=87	=87	=87	=87
16Bn\LL	8G/L 8en	8G\L	.	8r	.
16c\	.	.	.	.	.
16c-X\	16F/L 16An 16e	(16F\L	.	8an'\	.
16C-X\	16f/J	16E-\J)	.	.	.
16BB-\	8F/J 8B- 8d	8F\J	.	8r	.
16BBB-\JJ	.	.	.	.	.
16AAAn\LL	16G/LL 16d-X	(16E-\LL	.	8g'\	.
16AAn\	16e/J	16D-X\J)	.	.	.
16AA-X\	8A-X/ 8c	8E-\	.	8r	.
16AAA-X\	.	.	.	.	.
!	!	!	!	!LO:TX:a:t=arco	!
16DD\	8A-/J 8c	(16Dn\L	.	(8f#X/	.
16C-\JJ	.	16C\JJ)	.	.	.
=88	=88	=88	=88	=88	=88
16GG/LL	8G/L 8e-	(4BBn/	.	4.g/	.
16BBn/	.	.	.	.	.
16GG/	8d/	.	.	.	.
16DD/	.	.	.	.	.
16EE-/	8c/J	8C/)	.	.	.
16GG/JJ	.	.	.	.	.
16GGG/LL	4.Bn/	4.D/	<	8bn/L	<
16BB/	.	.	.	.	.
16DD/	.	.	.	8f#X/	.
16BB/	.	.	.	.	.
16GGG/	.	.	.	8g/J)	.
16BB/JJ	.	.	.	.	.
!LO:PB:g=original	!LO:PB:g=original	!	!	!	!
=89	=89	=89	=89	=89	=89
16GG/LL	8G/L 8g	(4C/	.	(4.g/	.
16C/	.	.	.	.	.
16GG/	8e-/	.	.	.	.
16EE-/	.	.	.	.	.
16GG/	8d/J	8D/)	.	.	.
16BBBn/JJ	.	.	.	.	.
16GGG/LL	4.c/	4.E-/	.	8cc#X/L	.
16C/	.	.	.	.	.
16EE-/	.	.	.	8f#X/	.
16C/	.	.	.	.	.
16GGG/	.	.	.	8g/J)	.
16C/JJ	.	.	.	.	.
=90	=90	=90	=90	=90	=90
16GGG/LL	4.c/	4.E-\	.	(8cc\L	.
16C/	.	.	.	.	.
16EE-/	.	.	.	8g\	.
16C/	.	.	.	.	.
16GGG/	.	.	.	8a-\J)	.
16C/JJ	.	.	.	.	.
16CC/LL	4.e-/	4.A-\	[[	(8ee-\L	.
16E-/	.	.	.	.	.
16AA-/	.	.	.	8bn\	.
16E-/	.	.	.	.	.
16CC/	.	.	.	8cc\J)	[[
16E-/JJ	.	.	.	.	.
!	!	!LO:LB:g=original	!	!	!
=91	=91	=91	=91	=91	=91
16EE-/LL	8f#X/L	(4.c^^\	.	(8aa-\L	>
16A-/	.	.	.	.	.
16C/	8g/	.	.	8gg\	.
16A-/	.	.	.	.	.
16EE-/	8a-/J	.	.	8ff#X\J)	.
16A-/JJ	.	.	.	.	.
!LO:TX:t=P:problem=mixed beam	!	!	!	!	!
16DD/LL	4g/	8Bn\)	.	(4gg\	.
16Bn\	.	.	.	.	.
16F\	.	4r	.	.	.
16D\	.	.	.	.	.
16D\	8G/	.	.	8g\)	]]
16BBn\JJ	.	.	.	.	.
!	!	!	!	!LO:LB:g=original	!
=92	=92	=92	=92	=92	=92
16GG/LL	8G/L 8e-	(4BBn/	.	(4.g\	.
16BBn/	.	.	.	.	.
16GG/	8d/	.	.	.	.
16DD/	.	.	.	.	.
16EE-/	8c/J	8C/)	<	.	.
16GG/JJ	.	.	.	.	.
16GGG/LL	4.Bn/	4.D/	.	8bn\L	.
16BBn/	.	.	.	.	.
16D/	.	.	.	8f#X\	.
16DD/	.	.	.	.	.
16GG/	.	.	.	8g\J)	.
16G/JJ	.	.	.	.	.
!LO:LB:g=original	!LO:LB:g=original	!	!	!	!
=93	=93	=93	=93	=93	=93
16GG/LL	8G/L 8g	(4C/	.	(4.g\	.
16C/	.	.	.	.	.
16GG/	8e-/	.	.	.	.
16EE-/	.	.	.	.	.
16GG/	8d/J	8D/)	.	.	.
16BBBn/JJ	.	.	.	.	.
!	!	!	!	!LO:TX:t=cresc:problem=dynamics with extention lines	!LO:HP:a:t=cresc
16GGG/LL	4.c/	4.E-/	[[	8cc\L	<
16C/	.	.	.	.	.
16E-/	.	.	.	8f#X\	.
16EE-/	.	.	.	.	.
16GG/	.	.	.	8g\J)	.
16G/JJ	.	.	.	.	.
*	*	*clefC4	*	*	*
=94	=94	=94	=94	=94	=94
16GGG/LL	4.c/	4.E-/	.	(8cc\L	.
16C/	.	.	.	.	.
16E-/	.	.	.	8g\	.
16EE-/	.	.	.	.	.
16AA-/	.	.	.	8a-\J)	.
16A-/JJ	.	.	.	.	.
16CC/LL	4.e-/	4.A-/	f	(8ee-\L	.
16E-/	.	.	.	.	.
16A-/	.	.	.	8bn\	.
16AA-/	.	.	.	.	.
16C/	.	.	.	8cc\J)	.
16c/JJ	.	.	.	.	.
=95	=95	=95	=95	=95	=95
16EE-/LL	4.g/	4.c\	.	(8gg\L	.
16G/JJ	.	.	.	.	.
16c\LL	.	.	.	8dd\	.
16C\	.	.	.	.	.
16E-\	.	.	.	8ee-\J)	.
16e-\JJ	.	.	.	.	.
16GG\LL	4.cc/	4.e-\	.	(8ccc\L	.
16c\	.	.	.	.	.
16e-\	.	.	.	8ff#X\	.
16E-\	.	.	.	.	.
16G\	.	.	.	8gg\J)	[[
16g\JJ	.	.	.	.	.
=96	=96	=96	=96	=96	=96
*	*8va	*	*	*	*
*	*tuplet	*	*	*	*
!	!LO:TUP:b:problem=klamra łukowa	!	!	!	!
4.A-\ 4.a-	24cccc\LL	4.f#X^^\	.	4.eee-^^\	.
.	24ffff#X\	.	.	.	.
.	24fff#X\JJ	.	.	.	.
*	*Xtuplet	*	*	*	*
!	!LO:TUP:problem=brak klamry	!	!	!	!
.	24fff#\LL	.	.	.	.
.	24cccc\	.	.	.	.
.	24ccc\JJ	.	.	.	.
.	24ccc\LL	.	.	.	.
.	24fff#\	.	.	.	.
.	24ff#X\JJ	.	.	.	.
*	*X8va	*	*	*	*
!LO:LB:g=original	!LO:LB:g=original	!	!	!	!
=-	=-	=-	=-	=-	=-
!	!	!	!	!	!LO:DY:a:t=ff.
4AA-\ 4A-	24ff#X\LL	4.F#X^^</	.	(4ee-\	ff
.	24ccc\	.	.	.	.
.	24cc\JJ	.	.	.	.
.	24cc\LL	.	.	.	.
.	24ff#\	.	.	.	.
.	24f#X\JJ	.	.	.	.
8AAA-/ 8AA-	24f#\LL	.	.	16dd\LL	.
.	24cc\	.	.	.	.
.	.	.	.	16cc\JJ)	.
.	24c\JJ	.	.	.	.
!	!	!LO:LB:g=original	!	!LO:LB:g=original	!
=97	=97	=97	=97	=97	=97
4.GGG/ 4.GG	24c\LL	(4e-\	>	(8cc\L	.
.	24f#X\	.	.	.	.
.	24F#X\JJ	.	.	.	.
.	24F#X</LL	.	.	8bn\	.
.	24c</	.	.	.	.
.	24C</JJ	.	.	.	.
.	24C</LL	16c\LL	.	8cc\J)	.
.	24F#</	.	.	.	.
.	.	16A-\JJ)	.	.	.
.	24FF#X</JJ	.	.	.	.
!	!	!	!	!	!LO:HP:a:t=dim
4.GGG\ 4.GG	24r<	4.Gtt\	]]	(4gg\	>
.	24GG</LL	.	.	.	.
.	24G</JJ	.	.	.	.
.	24BBn<\LL	.	.	.	.
.	24G<\	.	.	.	.
.	24g<\JJ	.	.	.	.
.	24Bn\LL	.	.	8bn\)	.
.	24g\	.	.	.	.
.	24gg\JJ	.	.	.	.
=98	=98	=98	=98	=98	=98
4.CCC/ 4.CC	24r	4.c\	f	(16cc\LL	<
.	24E-/LL	.	.	.	.
.	.	.	.	16bn\	.
.	24g/JJ	.	.	.	.
.	24g\LL	.	.	16cc\	.
.	24c\	.	.	.	.
.	.	.	.	16ee-\	.
.	24ee-\JJ	.	.	.	.
.	24ee-\LL	.	.	16gg\	.
.	24g\	.	.	.	.
.	.	.	.	16bbn\JJ)	.
.	24ccc\JJ	.	.	.	.
4.AAA-/ 4.AA-	24ccc\LL	(4e-\	.	(16ccc\LL	.
.	24aaa-\	.	.	.	.
.	.	.	.	16ddd\	.
.	24ff#X\JJ	.	.	.	.
.	24ff#\LL	.	.	16bb\	[
.	24ddd\	.	.	.	.
.	.	.	.	16ddd\	.
.	24cc\JJ	.	.	.	.
.	24cc\LL	8c\)	.	16ccc\	.
.	24aa-\	.	.	.	.
.	.	.	.	16aa-\JJ)	.
.	24f#X\JJ	.	.	.	.
!LO:LB:g=original	!LO:LB:g=original	!	!	!	!
=99	=99	=99	=99	=99	=99
4.EEE-/ 4.EE-	24g\LL	(4c\	.	(16gg\LL	>
.	24ee-\	.	.	.	.
.	.	.	.	16aa-\	.
.	24c\JJ	.	.	.	.
.	24c</LL	.	.	16ff#X\	.
.	24f#X</	.	.	.	.
.	.	.	.	16aa-\	.
.	24E-</JJ	.	.	.	.
.	24E-</LL	8G\)	.	16gg\	.
.	24c</	.	.	.	.
.	.	.	.	16ee-\JJ)	.
.	24GG</JJ	.	.	.	.
4.GGG\ 4.GG	24r<	(8G\L	.	(16dd\LL	] >
.	24GG</LL	.	.	.	.
.	.	.	.	16ee-\	.
.	24G</JJ	.	.	.	.
!	!LO:TX:t=P:problem=mixed beam	!	!	!	!
.	24C</LL	8F#X\	.	16cc\	.
.	24G</	.	.	.	.
.	.	.	.	16ee-\	.
.	24a-\JJ	.	.	.	.
.	24Bn\LL	8G\J)	.	16dd\	.
.	24g\	.	.	.	.
.	.	.	.	16bn\JJ)	]]
.	24gg\JJ	.	.	.	.
=100	=100	=100	=100	=100	=100
4.CCC/ 4.CC	24r	4.c\	.	(16cc\LL	<
.	24E-/LL	.	.	.	.
.	.	.	.	16bn\	.
.	24g/JJ	.	.	.	.
.	24g\LL	.	.	16cc\	.
.	24c\	.	.	.	.
.	.	.	.	16ee-\	.
.	24ee-\JJ	.	.	.	.
.	24ee-\LL	.	.	16gg\	.
.	24g\	.	.	.	.
.	.	.	.	16bbn\JJ)	.
.	24ccc\JJ	.	.	.	.
!	!	!	!	!LO:LB:g=original	!
=-	=-	=-	=-	=-	=-
4.AAA-/ 4.AA-	24ccc\LL	(4e-\	.	(16ccc\LL	[
.	24aaa-\	.	.	.	.
.	.	.	.	16ddd\	.
.	24ff#X\JJ	.	.	.	.
.	24ff#\LL	.	.	16bbn\	.
.	24ddd\	.	.	.	.
.	.	.	.	16ddd\	.
.	24cc\JJ	.	.	.	.
.	24cc\LL	8c\)	.	16ccc\	.
.	24aa-\	.	.	.	.
.	.	.	.	16aa-\JJ)	.
.	24f#X\JJ	.	.	.	.
=101	=101	=101	=101	=101	=101
4.EEE-/ 4.EE-	24g\LL	(4c\	.	(16gg\LL	>
.	24ee-\	.	.	.	.
.	.	.	.	16aa-\	.
.	24c\JJ	.	.	.	.
.	24c</LL	.	.	16ff#X\	.
.	24f#X</	.	.	.	.
.	.	.	.	16aa-\	.
.	24E-</JJ	.	.	.	.
.	24E-</LL	8G\)	.	16gg\	]
.	24c</	.	.	.	.
.	.	.	.	16ee-\JJ)	.
.	24GG</JJ	.	.	.	.
!LO:LB:g=original	!LO:LB:g=original	!	!	!	!
=-	=-	=-	=-	=-	=-
4.GGG/ 4.GG	24r<	(8G\L	.	(16dd\LL	>
.	24GG</LL	.	.	.	.
.	.	.	.	16ee-\	.
.	24G</JJ	.	.	.	.
!	!LO:TX:t=P:problem=mixed beam	!	!	!	!
.	24C</LL	8F#X\	.	16cc\	.
.	24A-</	.	.	.	.
.	.	.	.	16ee-\	.
.	24a-\JJ	.	.	.	.
.	24Bn\LL	8G\J)	.	16dd\	]
.	24g\	.	.	.	.
.	.	.	.	16bn\JJ)	.
.	24gg\JJ	.	.	.	.
!	!	!LO:LB:g=original	!	!	!
=102	=102	=102	=102	=102	=102
*	*	*clefF4	*	*	*
!LO:N:vis=4.	!	!	!	!	!
4CCC\ 4CC	24r<	(4E-\	.	(16cc\LL	.
.	24C</LL	.	.	.	.
.	.	.	.	16dd\	.
.	24e-</JJ	.	.	.	.
.	24e-\LL	.	.	16bn\	<
.	24G\	.	.	.	.
.	.	.	.	16cc\	.
.	24cc\JJ	.	.	.	.
8FFF#X/ 8FF#X	24cc\LL	8C\)	.	16ccc\	.
.	24e-\	.	.	.	.
.	.	.	.	16cc\JJ)	.
.	24aa-\JJ	.	.	.	.
4.GGG/ 4.GG	24gg\LL	4.G\	.	(16ee-\LL	.
.	24eee-\	.	.	.	.
.	.	.	.	16gg\	.
.	24bn\JJ	.	.	.	.
.	24cc\LL	.	.	16eee-\	[ >
.	24gg\	.	.	.	.
.	.	.	.	16ccc\	.
.	24e-\JJ	.	.	.	.
.	24d\LL	.	.	16bbn\	.
.	24bn\	.	.	.	.
.	.	.	.	16gg\JJ)	]]
.	24G\JJ	.	.	.	.
=103	=103	=103	=103	=103	=103
!LO:N:vis=4.	!	!	!	!LO:TX:t=P:problem=mixed beam	!
4CCC\ 4CC	24r<	(4EE-/	.	16ccc\LL	.
.	24CC</LL	.	.	.	.
.	.	.	.	(16c/JJ	.
.	24E-</JJ	.	.	.	.
.	24E-</LL	.	.	16Bn/LL	.
.	24GG</	.	.	.	.
.	.	.	.	16c/	.
.	24c</JJ	.	.	.	.
!	!LO:TX:t=P:problem=mixed beam	!	!	!	!
8FFF#X\ 8FF#X	24c</LL	8CC/)	.	16e-/	.
.	24E-</	.	.	.	.
.	.	.	.	16c/JJ)	.
.	24a-\JJ	.	.	.	.
!	!	!	!	!LO:LB:g=original	!
=-	=-	=-	=-	=-	=-
!	!	!	!	!	!LO:DY:a
4.GGG\ 4.GG	24g\LL	4.GG/	.	(16e-/LL	p
.	24ee-\	.	.	.	.
.	.	.	.	16g/	.
.	24Bn\JJ	.	.	.	.
.	24c\LL	.	.	16ee-/	.
.	24g\	.	.	.	.
.	.	.	.	16cc/	.
.	24E-\JJ	.	.	.	.
.	24D</LL	.	.	16bn/	.
.	24Bn</	.	.	.	.
.	.	.	.	16g/JJ)	.
.	24GG</JJ	.	.	.	.
!LO:LB:g=original	!LO:LB:g=original	!	!	!	!
=104	=104	=104	=104	=104	=104
!	!	!	!LO:DY:a	!	!
4.CCC\ 4.CC	24r<	8CC'/L	p	(16cc\LL	.
.	24GG</LL	.	.	.	.
.	.	.	.	16bn\	.
.	24G</JJ	.	.	.	.
.	24G</LL	8GG'/	.	16cc\	.
.	24C</	.	.	.	.
.	.	.	.	16e-\	.
.	24c</JJ	.	.	.	.
!	!LO:TX:t=P:problem=mixed beam	!	!	!	!
.	24c</LL	8C'/J	.	16g\	.
.	24G</	.	.	.	.
.	.	.	.	16cc\JJ)	.
.	24g\JJ	.	.	.	.
4.EEE-\ 4.EE-	24r<	8EE-'/L	.	(16ee-\LL	.
.	24C</LL	.	.	.	.
.	.	.	.	16dd\	.
.	24c</JJ	.	.	.	.
!	!LO:TX:t=P:problem=mixed beam	!	!	!	!
.	24c</LL	8C'/	.	16ee-\	.
.	24G</	.	.	.	.
.	.	.	.	16g\	.
.	24g\JJ	.	.	.	.
.	24g\LL	8G'/J	.	16cc\	.
.	24c\	.	.	.	.
.	.	.	.	16ee-\JJ)	.
.	24cc\JJ	.	.	.	.
=105	=105	=105	=105	=105	=105
!	!	!	!	!LO:TX:b:t=cresc:problem=dynamics with extention lines	!LO:HP:t=cresc
4.GGG/ 4.GG	24r	8GG'/L	.	(16gg\LL	<
.	24G\LL	.	.	.	.
.	.	.	.	16ff#X\	.
.	24g\JJ	.	.	.	.
.	24g\LL	8E-'/	.	16gg\	.
.	24c\	.	.	.	.
.	.	.	.	16cc\	.
.	24cc\JJ	.	.	.	.
.	24cc\LL	8c'/J	.	16ee-\	.
.	24g\	.	.	.	.
.	.	.	.	16gg\JJ)	.
.	24gg\JJ	.	.	.	.
4.CC/ 4.C	24r	8C'\L	.	(16ccc\LL	.
.	24c\LL	.	.	.	.
.	.	.	.	16bbn\	.
.	24cc\JJ	.	.	.	.
.	24cc\LL	8G'\	.	16ccc\	.
.	24g\	.	.	.	.
.	.	.	.	16ee-\	.
.	24gg\JJ	.	.	.	.
.	24gg\LL	8e-'\J	.	16gg\	.
.	24cc\	.	.	.	.
.	.	.	.	16ccc\JJ)	[[
.	24ccc\JJ	.	.	.	.
=106	=106	=106	=106	=106	=106
4.CCC/ 4.CC	24ccc\LL	4.c\	.	4.cccc\	.
.	24ggg\	.	.	.	.
.	24ee-\JJ	.	.	.	.
.	24ee-\LL	.	.	.	.
.	24ccc\	.	.	.	.
.	24g\JJ	.	.	.	.
.	24g\LL	.	.	.	.
.	24ee-\	.	.	.	.
.	24c\JJ	.	.	.	.
!LO:LB:g=original	!LO:LB:g=original	!	!	!	!
=-	=-	=-	=-	=-	=-
!	!	!	!LO:DY:a	!	!
4.AAA-/ 4.AA-	24c/LL	4.CC^^</	ff	4.cc^^\	.
.	24F#X/	.	.	.	.
.	24a-/JJ	.	.	.	.
.	24a-\LL	.	.	.	.
.	24c\	.	.	.	.
.	24ee-\JJ	.	.	.	.
.	24ee-\LL	.	.	.	.
.	24f#X\	.	.	.	.
.	24ccc\JJ	.	.	.	.
!	!	!LO:LB:g=original	!	!LO:LB:g=original	!
=107	=107	=107	=107	=107	=107
4.CCC/ 4.CC	24ccc\LL	4.c\	.	4.cccc\	.
.	24ggg\	.	.	.	.
.	24ee-\JJ	.	.	.	.
.	24ee-\LL	.	.	.	.
.	24ccc\	.	.	.	.
.	24g\JJ	.	.	.	.
.	24g\LL	.	.	.	.
.	24ee-\	.	.	.	.
.	24c\JJ	.	.	.	.
!	!	!	!LO:DY:a	!	!
4.AAA-\ 4.AA-	24c/LL	4.CC^^</	ff	4.cc^^\	.
.	24F#X/	.	.	.	.
.	24a-/JJ	.	.	.	.
.	24a-\LL	.	.	.	.
.	24c\	.	.	.	.
.	24ee-\JJ	.	.	.	.
.	24ee-\LL	.	.	.	.
.	24f#X\	.	.	.	.
.	24ccc\JJ	.	.	.	.
=108	=108	=108	=108	=108	=108
8CCC/ 8CC	24ccc\LL	(4c^^\	.	(4cccc\	.
.	24ggg\	.	.	.	.
.	24ee-\JJ	.	.	.	.
*clefG2	*	*	*	*	*
24e-/LL	24ee-\LL	.	.	.	.
24cc/	24ccc\	.	.	.	.
24G/JJ	24g\JJ	.	.	.	.
*clefF4	*	*	*	*	*
24G\LL	24g\LL	8C\)	.	8ccc\)	.
24e-\	24ee-\	.	.	.	.
24C\JJ	24c\JJ	.	.	.	.
24C\LL	24c</LL	(4C^^\	.	(4ccc^^\	.
24G\	24g</	.	.	.	.
24EE-\JJ	24E-</JJ	.	.	.	.
24EE-\LL	24E-</LL	.	.	.	.
24C\	24c</	.	.	.	.
24GGG\JJ	24GG</JJ	.	.	.	.
24GGG\LL	24GG</LL	8CC/)	.	8cc\)	.
24EE-\	24E-</	.	.	.	.
24CCC\JJ	24CC</JJ	.	.	.	.
!LO:LB:g=original	!LO:LB:g=original	!	!	!	!
=109	=109	=109	=109	=109	=109
*tremolo	*tremolo	*	*	*	*
32CCC\LLL	32CC</LLL	8CC/	.	8cc\	.
32BBBBn\	32BBBn</	.	.	.	.
32CCC\	32CC</	.	.	.	.
32BBBB\	32BBB</	.	.	.	.
32CCC\	32CC</	4r	.	4r	.
32BBBB\	32BBB</	.	.	.	.
32CCC\	32CC</	.	.	.	.
32BBBB\	32BBB</	.	.	.	.
32CCC\	32CC</	.	.	.	.
32BBBB\	32BBB</	.	.	.	.
32CCC\	32CC</	.	.	.	.
32BBBB\	32BBB</	.	.	.	.
!	!	!LO:TX:a:t=pizz.	!	!LO:TX:a:t=pizz	!
32CCC\	32CC</	8CC/ 8AA- 8F#X	.	8c:\ 8a-: 8ee-: 8ccc:	.
32BBBB\	32BBB</	.	.	.	.
32CCC\	32CC</	.	.	.	.
32BBBB\	32BBB</	.	.	.	.
32CCC\	32CC</	4r	.	4r	.
32BBBB\	32BBB</	.	.	.	.
32CCC\	32CC</	.	.	.	.
32BBBB\	32BBB</	.	.	.	.
32CCC\	32CC</	.	.	.	.
32BBBB\	32BBB</	.	.	.	.
32CCC\	32CC</	.	.	.	.
32BBBB\JJJ	32BBB</JJJ	.	.	.	.
*Xtremolo	*Xtremolo	*	*	*	*
=110	=110	=110	=110	=110	=110
!	!	!LO:TX:a:t=arco.	!	!LO:TX:b:t=Fine.	!
!	!LO:TX:b:t=Fine.	!LO:TX:b:t=Fine.	!	!LO:TX:a:t=arco.	!
2.CCC\	2.CC</	2.CC/ 2.GG 2.E-	.	2.c\ 2.g 2.ee- 2.ccc	.
!LO:PB:g=original	!LO:PB:g=original	!	!	!	!
==	==	==	==	==	==
*-	*-	*-	*-	*-	*-
!!!system-decoration: s1,s2{(s3,s4)}
!!!RDF**kern: < = below
!!!RDF**kern: > = above
!!!RDF**dynam: p = “p.”
!!!RDF**dynam: f = “f.”
!!!ENC: Marta Chmielewska
!!!END: 2021-05-25
!!!ENC: Krzysztof Stępień
!!!END: 2021-05-05
